X: 16
T: Here Comes the Sun (3:09) - Horn Backup
C: The Beatles
Z: Digero of Landroval
M: 4/4
Q: 127
K: C maj

% Bar 1
z8  |  z8  |  z8  |  z8  |  z8  |  z8  |  z8  |  z8  |  z8  |  z8  |  
% Bar 11
z8  |  z8  |  z8  |  z8  |  z8  |  z8  |  z8  |  z8  |  z8  |  z8  |  
% Bar 21
z8  |  z8  |  z8  |  z8  |  z8  |  z8  |  z8  |  z8  |  z8  |  z8  |  
% Bar 31
z8  |  z8  |  z8  |  z8  |  z8  |  z8  |  z8  |  z8  |  z8  |  z8  |  
% Bar 41
z8  |  z8  |  z8  |  z8  |  z8  |  z8  |  z8  |  z8  |  z8  |  z8  |  
% Bar 51
z8  |  z8  |  z8  |  z8  |  z8  |  
+p+ [^D,3/2z] +mp+ G, +mf+ ^A, +mp+ [B,3/2z] +p+ ^D +mp+ ^F ^F, +mf+ A,  |  
^C F, +mp+ ^G, C ^C, +mf+ F, +mp+ G,2-  |  ^G,11/2 z5/2  |  
z2 +p+ [^D3/2z] +mp+ G +mf+ ^A +mp+ [B3/2z] +p+ ^d +mp+ ^f  |  
^F +mf+ ^A ^c =F +mp+ ^G c ^C +mf+ F  |  
% Bar 61
+mp+ ^G15/2 z/  |  z8  |  z8  |  z8  |  z8  |  z8  |  z8  |  z8  |  z8  |  z8  |  
% Bar 71
z8  |  z8  |  z8  |  z8  |  z8  |  z8  |  z8  |  z8  |  z8  |  z8  |  
% Bar 81
z8  |  z8  |  z8  |  z8  |  z8  |  z8  |  z8  |  z8  |  z8  |  z8  |  
% Bar 91
z8  |  z8  |  z8  |  z8  |  z8  |  z8  |  z8  |  z8  |  z8  |  z8  |  z8  |]

